src/images/icon-like.svg

<?xml version="1.0" encoding="UTF-8"?>
<svg fill="none" viewBox="0 0 14 12" xmlns="http://www.w3.org/2000/svg">
<path d="m6.6524 1.8979 0.36177 0.34984 0.34749-0.36403c0.72051-0.75482 1.6165-1.3837 2.8201-1.3837 1.9201 0 3.3182 1.5286 3.3182 3.5 0 0.9368-0.4253 1.7359-1.1153 2.405l-5.3847 4.9178-5.3901-4.9228-0.01004-0.00917-0.01052-0.0086c-0.70375-0.57585-1.0894-1.4146-1.0894-2.3823 0-1.9714 1.3981-3.5 3.3182-3.5 1.1952 0 2.0903 0.67846 2.8342 1.3979z" stroke="#424242"/>
</svg>

<svg width="14" height="12" viewBox="0 0 14 12" fill="none" xmlns="http://www.w3.org/2000/svg">
<path d="M6.65242 1.89789L7.01419 2.24773L7.36168 1.8837C8.08219 1.12888 8.97817 0.5 10.1818 0.5C12.1019 0.5 13.5 2.02862 13.5 4C13.5 4.9368 13.0747 5.73587 12.3847 6.40496L7 11.3228L1.60992 6.40004L1.59988 6.39087L1.58936 6.38227C0.885614 5.80642 0.5 4.96765 0.5 4C0.5 2.02862 1.89813 0.5 3.81818 0.5C5.01333 0.5 5.90847 1.17846 6.65242 1.89789Z" stroke="#424242"/>
</svg>
